icons/fill-new-office-doc-document.svg

<svg xmlns="http://www.w3.org/2000/svg" width="32px" height="32px" viewBox="0 0 32 32" version="1.1">
    <title>fill-new-office-doc-document</title>
    <g id="fill-new-office-doc-document" stroke-width="1" fill-rule="evenodd">
        <path d="M18,2 L18,11 C18,11.5522847 18.4477153,12 19,12 L28,12 L28,29 C28,29.5522847 27.5522847,30 27,30 L5,30 C4.44771525,30 4,29.5522847 4,29 L4,3 C4,2.44771525 4.44771525,2 5,2 L18,2 Z M21,22 L11,22 C10.4477153,22 10,22.4477153 10,23 C10,23.5522847 10.4477153,24 11,24 L21,24 C21.5522847,24 22,23.5522847 22,23 C22,22.4477153 21.5522847,22 21,22 Z M21,16 L11,16 C10.4477153,16 10,16.4477153 10,17 C10,17.5522847 10.4477153,18 11,18 L21,18 C21.5522847,18 22,17.5522847 22,17 C22,16.4477153 21.5522847,16 21,16 Z M14,10 L11,10 C10.4477153,10 10,10.4477153 10,11 C10,11.5522847 10.4477153,12 11,12 L14,12 C14.5522847,12 15,11.5522847 15,11 C15,10.4477153 14.5522847,10 14,10 Z M20.2928932,2.29289322 L27.7071068,9.70710678 C27.7925934,9.79259345 27.861004,9.89196417 27.9101431,9.99991892 L20,10 L20.0010929,2.09031818 C20.1086568,2.13942374 20.2076737,2.2076737 20.2928932,2.29289322 Z" id="&#24418;&#29366;" />
    </g>
</svg>

<svg xmlns="http://www.w3.org/2000/svg" viewBox="0 0 32 32"><path fill="currentColor" d="M18 2v9a1 1 0 0 0 1 1h9v17a1 1 0 0 1-1 1H5a1 1 0 0 1-1-1V3a1 1 0 0 1 1-1zm3 20H11a1 1 0 0 0 0 2h10a1 1 0 0 0 0-2m0-6H11a1 1 0 0 0 0 2h10a1 1 0 0 0 0-2m-7-6h-3a1 1 0 0 0 0 2h3a1 1 0 0 0 0-2m6.293-7.707 7.414 7.414a1 1 0 0 1 .203.293H20l.001-7.91a1 1 0 0 1 .292.203"/></svg>
